Sources/FrostedUI/Resources/Icons.xcassets/gif16.imageset/gif-16.svg

<svg width="16" height="16" viewBox="0 0 16 16" fill="none" xmlns="http://www.w3.org/2000/svg" data-fui-icon="true">
  <path
    d="M8 0C9.19328 0 10.1298 -0.000248829 10.8838 0.0566406C11.6455 0.114121 12.2819 0.233017 12.8652 0.503906C14.0253 1.04272 14.9573 1.97474 15.4961 3.13477C15.767 3.71806 15.8859 4.35446 15.9434 5.11621C16.0002 5.87017 16 6.80672 16 8C16 9.19328 16.0002 10.1298 15.9434 10.8838C15.8859 11.6455 15.767 12.2819 15.4961 12.8652C14.9573 14.0253 14.0253 14.9573 12.8652 15.4961C12.2819 15.767 11.6455 15.8859 10.8838 15.9434C10.1298 16.0002 9.19328 16 8 16C6.80672 16 5.87017 16.0002 5.11621 15.9434C4.35446 15.8859 3.71806 15.767 3.13477 15.4961C1.97474 14.9573 1.04272 14.0253 0.503906 12.8652C0.233017 12.2819 0.114121 11.6455 0.0566406 10.8838C-0.000248829 10.1298 0 9.19328 0 8C0 6.80672 -0.000248861 5.87017 0.0566406 5.11621C0.114121 4.35446 0.233017 3.71806 0.503906 3.13477C1.04272 1.97474 1.97474 1.04272 3.13477 0.503906C3.71806 0.233017 4.35446 0.114121 5.11621 0.0566406C5.87017 -0.000248861 6.80672 0 8 0ZM8 1.5C6.78422 1.5 5.91386 1.50015 5.22949 1.55176C4.55282 1.60282 4.11817 1.70098 3.7666 1.86426C2.92783 2.25386 2.25386 2.92783 1.86426 3.7666C1.70098 4.11817 1.60282 4.55282 1.55176 5.22949C1.50015 5.91386 1.5 6.78422 1.5 8C1.5 9.21578 1.50015 10.0861 1.55176 10.7705C1.60282 11.4472 1.70098 11.8818 1.86426 12.2334C2.25386 13.0722 2.92783 13.7461 3.7666 14.1357C4.11817 14.299 4.55282 14.3972 5.22949 14.4482C5.91386 14.4999 6.78422 14.5 8 14.5C9.21578 14.5 10.0861 14.4999 10.7705 14.4482C11.4472 14.3972 11.8818 14.299 12.2334 14.1357C13.0722 13.7461 13.7461 13.0722 14.1357 12.2334C14.299 11.8818 14.3972 11.4472 14.4482 10.7705C14.4999 10.0861 14.5 9.21578 14.5 8C14.5 6.78422 14.4999 5.91386 14.4482 5.22949C14.3972 4.55282 14.299 4.11817 14.1357 3.7666C13.7461 2.92783 13.0722 2.25386 12.2334 1.86426C11.8818 1.70098 11.4472 1.60282 10.7705 1.55176C10.0861 1.50015 9.21578 1.5 8 1.5ZM4.73828 5.25C5.35645 5.25 5.81618 5.414 6.13867 5.61133C6.29657 5.70797 6.41556 5.80855 6.5 5.89355C6.54209 5.93597 6.57662 5.97482 6.60254 6.00684C6.61537 6.02269 6.62656 6.03733 6.63574 6.0498C6.64029 6.05598 6.64476 6.06215 6.64844 6.06738C6.65018 6.06992 6.65175 6.07291 6.65332 6.0752C6.65399 6.07634 6.65458 6.07808 6.65527 6.0791L6.65723 6.08008V6.08105C6.65452 6.08347 6.61755 6.10952 6.15137 6.42285L6.6582 6.08203C6.88888 6.42572 6.7976 6.89205 6.4541 7.12305C6.13197 7.33935 5.70181 7.27252 5.45898 6.98047L5.43652 6.95117C5.42808 6.94267 5.40192 6.91852 5.35645 6.89062C5.27076 6.83819 5.08148 6.75098 4.73828 6.75098C4.33057 6.75104 4.00006 7.08154 4 7.48926V8.33984C4.00026 8.8401 4.40593 9.24609 4.90625 9.24609C5.08283 9.24607 5.22929 9.12434 5.27148 8.96094C4.96976 8.86412 4.75043 8.58476 4.75 8.25098C4.75 7.83676 5.08579 7.50098 5.5 7.50098H5.59863C6.25374 7.50098 6.78496 8.03146 6.78516 8.68652V8.86719C6.7847 9.90465 5.94382 10.7461 4.90625 10.7461C3.5775 10.7461 2.50026 9.66853 2.5 8.33984V7.48926C2.50006 6.25312 3.50214 5.25006 4.73828 5.25ZM8.29492 5.25C8.70914 5.25 9.04492 5.58676 9.04492 6.00098V9.99609C9.04464 10.4101 8.70896 10.7461 8.29492 10.7461C7.88093 10.746 7.5452 10.41 7.54492 9.99609V6.00098C7.54492 5.5868 7.88076 5.25006 8.29492 5.25ZM12.751 5.25C13.1651 5.25011 13.501 5.58683 13.501 6.00098C13.5007 6.4149 13.1649 6.75087 12.751 6.75098H11.4502V7.24805H12.4365C12.8503 7.24836 13.1863 7.58425 13.1865 7.99805C13.1863 8.41184 12.8503 8.74773 12.4365 8.74805H11.4502V9.99609C11.4499 10.41 11.1141 10.746 10.7002 10.7461C10.2862 10.7461 9.95048 10.4101 9.9502 9.99609V6.50098C9.9502 5.81062 10.5098 5.25 11.2002 5.25H12.751Z"
    fill="currentColor"
  />
</svg>

<svg xmlns="http://www.w3.org/2000/svg" width="16" height="16" fill="none" data-fui-icon="true" viewBox="0 0 16 16"><path fill="currentColor" d="M8 0c1.193 0 2.13 0 2.884.057.761.057 1.398.176 1.981.447a5.42 5.42 0 0 1 2.631 2.63c.271.584.39 1.22.447 1.982C16 5.87 16 6.806 16 8s0 2.13-.057 2.884c-.057.761-.176 1.398-.447 1.981a5.42 5.42 0 0 1-2.63 2.631c-.584.271-1.22.39-1.982.447C10.13 16 9.194 16 8 16s-2.13 0-2.884-.057c-.762-.057-1.398-.176-1.981-.447a5.42 5.42 0 0 1-2.631-2.63c-.271-.584-.39-1.22-.447-1.982C0 10.13 0 9.194 0 8s0-2.13.057-2.884c.057-.762.176-1.398.447-1.981A5.42 5.42 0 0 1 3.134.504c.584-.271 1.22-.39 1.982-.447C5.87 0 6.806 0 8 0m0 1.5c-1.216 0-2.086 0-2.77.052-.677.05-1.112.149-1.463.312a3.92 3.92 0 0 0-1.903 1.903c-.163.351-.261.786-.312 1.462C1.5 5.914 1.5 6.784 1.5 8s0 2.086.052 2.77c.05.677.149 1.112.312 1.463a3.92 3.92 0 0 0 1.903 1.903c.351.163.786.261 1.462.312.685.052 1.555.052 2.771.052s2.086 0 2.77-.052c.677-.05 1.112-.149 1.463-.312a3.92 3.92 0 0 0 1.903-1.903c.163-.351.261-.786.312-1.463.052-.684.052-1.554.052-2.77s0-2.086-.052-2.77c-.05-.677-.149-1.112-.312-1.463a3.92 3.92 0 0 0-1.903-1.903c-.351-.163-.786-.261-1.463-.312C10.087 1.5 9.217 1.5 8 1.5M4.738 5.25c.618 0 1.078.164 1.4.361a2 2 0 0 1 .465.396l.045.06.005.008.002.004.002.001v.001c-.002.002-.04.029-.506.342l.507-.341a.75.75 0 0 1-1.199.898l-.022-.029a.5.5 0 0 0-.08-.06c-.086-.053-.276-.14-.619-.14A.74.74 0 0 0 4 7.489v.85c0 .501.406.907.906.907a.38.38 0 0 0 .365-.285A.747.747 0 0 1 5.5 7.5h.099c.655 0 1.186.53 1.186 1.186v.18a1.88 1.88 0 0 1-1.879 1.88A2.407 2.407 0 0 1 2.5 8.34v-.85a2.24 2.24 0 0 1 2.238-2.24m3.557 0a.75.75 0 0 1 .75.751v3.995a.75.75 0 0 1-1.5 0V6.001a.75.75 0 0 1 .75-.751m4.456 0a.751.751 0 0 1 0 1.501h-1.3v.497h.986a.75.75 0 0 1 0 1.5h-.987v1.248a.75.75 0 0 1-1.5 0V6.501c0-.69.56-1.251 1.25-1.251z"/></svg>
